web-magafilio/image/home/icon-faturar.svg

<svg width="59" height="59" viewBox="0 0 59 59" fill="none" xmlns="http://www.w3.org/2000/svg">
<path d="M29.6767 56.8747C45.0272 56.8747 57.4713 44.4306 57.4713 29.08C57.4713 13.7295 45.0272 1.2854 29.6767 1.2854C14.3261 1.2854 1.88202 13.7295 1.88202 29.08C1.88202 44.4306 14.3261 56.8747 29.6767 56.8747Z" fill="#D0D7DF"/>
<path d="M29.6767 49.6241C41.0227 49.6241 50.2205 40.4263 50.2205 29.0802C50.2205 17.7342 41.0227 8.53638 29.6767 8.53638C18.3306 8.53638 9.13281 17.7342 9.13281 29.0802C9.13281 40.4263 18.3306 49.6241 29.6767 49.6241Z" fill="#F1F2F2"/>
<path d="M32.0936 32.7055C36.7704 32.7055 40.5529 31.0861 40.5529 29.0801V35.1224C40.5529 37.1284 36.7704 38.7478 32.0936 38.7478C27.4169 38.7478 23.6344 37.1284 23.6344 35.1224V29.0801C23.6344 31.0861 27.4169 32.7055 32.0936 32.7055Z" fill="#FED049"/>
<path d="M57.4713 47.207V53.2493C57.4713 55.2554 53.6888 56.8747 49.0121 56.8747C44.3353 56.8747 40.5529 55.2554 40.5529 53.2493V47.207C40.5529 49.2131 44.3353 50.8324 49.0121 50.8324C53.6888 50.8324 57.4713 49.2131 57.4713 47.207Z" fill="#FED049"/>
<path d="M49.0121 44.7901C53.684 44.7901 57.4713 43.1669 57.4713 41.1647C57.4713 39.1624 53.684 37.5393 49.0121 37.5393C44.3402 37.5393 40.5529 39.1624 40.5529 41.1647C40.5529 43.1669 44.3402 44.7901 49.0121 44.7901Z" fill="#FED049"/>
<path d="M40.5529 41.1648V47.2071C40.5529 49.2132 36.7704 50.8325 32.0936 50.8325C27.4169 50.8325 23.6344 49.2132 23.6344 47.2071V41.1648C23.6344 43.1708 27.4169 44.7902 32.0936 44.7902C36.7704 44.7902 40.5529 43.1708 40.5529 41.1648Z" fill="#FED049"/>
<path d="M32.0936 32.7056C36.7655 32.7056 40.5529 31.0825 40.5529 29.0802C40.5529 27.078 36.7655 25.4548 32.0936 25.4548C27.4217 25.4548 23.6344 27.078 23.6344 29.0802C23.6344 31.0825 27.4217 32.7056 32.0936 32.7056Z" fill="#F6B445"/>
<path d="M40.5529 35.1226V41.1649C40.5529 43.1709 36.7704 44.7903 32.0936 44.7903C27.4169 44.7903 23.6344 43.1709 23.6344 41.1649V35.1226C23.6344 37.1286 27.4169 38.7479 32.0936 38.7479C36.7704 38.7479 40.5529 37.1286 40.5529 35.1226Z" fill="#F6B445"/>
<path d="M49.0121 44.7902C53.6888 44.7902 57.4713 43.1708 57.4713 41.1648V47.2071C57.4713 49.2132 53.6888 50.8325 49.0121 50.8325C44.3353 50.8325 40.5529 49.2132 40.5529 47.2071V41.1648C40.5529 43.1708 44.3353 44.7902 49.0121 44.7902Z" fill="#F6B445"/>
<path d="M40.5529 47.207V53.2493C40.5529 55.2554 36.7704 56.8747 32.0936 56.8747C27.4169 56.8747 23.6344 55.2554 23.6344 53.2493V47.207C23.6344 49.2131 27.4169 50.8324 32.0936 50.8324C36.7704 50.8324 40.5529 49.2131 40.5529 47.207Z" fill="#F6B445"/>
<path d="M16.5395 52.1992C12.4758 49.8895 9.09285 46.5492 6.73173 42.5152C4.37062 38.4811 3.11479 33.8959 3.09086 29.2217C3.06693 24.5475 4.27574 19.9497 6.59542 15.8916C8.91511 11.8336 12.2637 8.45889 16.3035 6.1077C20.3433 3.7565 24.9317 2.51194 29.6059 2.49949C34.2801 2.48704 38.875 3.70715 42.9273 6.03679C46.9796 8.36644 50.3461 11.7233 52.6874 15.7689C55.0286 19.8145 56.2619 24.4059 56.2629 29.0801C56.2629 29.4006 56.3902 29.708 56.6168 29.9346C56.8434 30.1612 57.1508 30.2885 57.4713 30.2885C57.7918 30.2885 58.0992 30.1612 58.3258 29.9346C58.5525 29.708 58.6798 29.4006 58.6798 29.0801C58.6787 23.981 57.3333 18.9723 54.7792 14.559C52.2251 10.1456 48.5526 6.48366 44.1319 3.94225C39.7113 1.40084 34.6987 0.0698104 29.5997 0.0833543C24.5006 0.0968981 19.4952 1.45454 15.0881 4.01939C10.681 6.58425 7.02801 10.2657 4.49739 14.6925C1.96677 19.1193 0.647975 24.1351 0.673961 29.2342C0.699946 34.3332 2.06979 39.3353 4.6454 43.7361C7.221 48.1369 10.9113 51.7809 15.3443 54.3007C15.4823 54.3792 15.6344 54.4297 15.7919 54.4494C15.9494 54.4691 16.1093 54.4576 16.2623 54.4155C16.4154 54.3734 16.5587 54.3016 16.684 54.2041C16.8093 54.1067 16.9142 53.9855 16.9927 53.8475C17.0711 53.7095 17.1217 53.5574 17.1414 53.3999C17.1611 53.2424 17.1495 53.0826 17.1075 52.9295C17.0654 52.7764 16.9936 52.6332 16.8961 52.5079C16.7987 52.3826 16.6775 52.2777 16.5395 52.1992Z" fill="#474C54"/>
<path d="M10.3413 29.0801C10.3413 23.9521 12.3784 19.034 16.0045 15.4079C19.6306 11.7818 24.5486 9.74472 29.6767 9.74472C34.8048 9.74472 39.7228 11.7818 43.3489 15.4079C46.975 19.034 49.0121 23.9521 49.0121 29.0801C49.0121 29.4006 49.1394 29.708 49.3661 29.9346C49.5927 30.1613 49.9001 30.2886 50.2206 30.2886C50.5411 30.2886 50.8485 30.1613 51.0751 29.9346C51.3017 29.708 51.429 29.4006 51.429 29.0801C51.429 25.4246 50.5077 21.8281 48.7502 18.6227C46.9928 15.4174 44.4559 12.7067 41.3739 10.7409C38.292 8.77519 34.7643 7.61786 31.1168 7.37585C27.4693 7.13384 23.8196 7.81496 20.505 9.35629C17.1903 10.8976 14.3175 13.2494 12.152 16.1945C9.9865 19.1395 8.59811 22.5828 8.1151 26.2063C7.6321 29.8297 8.07004 33.5165 9.38849 36.926C10.7069 40.3354 12.8634 43.3576 15.6585 45.7134C15.779 45.8214 15.9199 45.9042 16.0729 45.9567C16.2259 46.0093 16.3879 46.0306 16.5493 46.0194C16.7107 46.0081 16.8682 45.9646 17.0125 45.8914C17.1568 45.8182 17.2848 45.7167 17.3892 45.593C17.4935 45.4694 17.5719 45.326 17.6198 45.1715C17.6677 45.0169 17.684 44.8544 17.6679 44.6934C17.6518 44.5324 17.6035 44.3763 17.5259 44.2343C17.4483 44.0923 17.343 43.9674 17.2163 43.8669C15.0611 42.0528 13.329 39.7892 12.1413 37.2348C10.9537 34.6804 10.3393 31.8971 10.3413 29.0801Z" fill="#474C54"/>
<path d="M49.0121 36.331C46.5083 36.2647 44.0242 36.7896 41.7613 37.8633V29.0802C41.7613 25.9068 36.8985 24.2463 32.0936 24.2463C27.2888 24.2463 22.4259 25.9068 22.4259 29.0802V53.2494C22.4259 56.4229 27.2888 58.0833 32.0936 58.0833C35.4423 58.0833 38.8139 57.2748 40.5528 55.7111C42.2918 57.2748 45.6634 58.0833 49.0121 58.0833C53.8169 58.0833 58.6798 56.4229 58.6798 53.2494V41.1648C58.6798 37.9914 53.8169 36.331 49.0121 36.331ZM56.2629 47.2071C56.2629 48.0531 53.51 49.6241 49.0121 49.6241C44.5142 49.6241 41.7613 48.0531 41.7613 47.2071V44.4663C44.0242 45.54 46.5083 46.065 49.0121 45.9987C51.5159 46.065 54 45.54 56.2629 44.4663V47.2071ZM39.3444 35.1225C39.3444 35.9684 36.5915 37.5394 32.0936 37.5394C27.5957 37.5394 24.8428 35.9684 24.8428 35.1225V32.3817C27.1057 33.4554 29.5898 33.9803 32.0936 33.914C34.5974 33.9803 37.0815 33.4554 39.3444 32.3817V35.1225ZM32.0936 39.9564C34.5974 40.0227 37.0815 39.4977 39.3444 38.424V41.1648C39.3444 42.0107 36.5915 43.5817 32.0936 43.5817C27.5957 43.5817 24.8428 42.0107 24.8428 41.1648V38.424C27.1057 39.4977 29.5898 40.0227 32.0936 39.9564ZM24.8428 44.4663C27.1057 45.54 29.5898 46.065 32.0936 45.9987C34.5974 46.065 37.0815 45.54 39.3444 44.4663V47.2071C39.3444 48.0531 36.5915 49.6241 32.0936 49.6241C27.5957 49.6241 24.8428 48.0531 24.8428 47.2071V44.4663ZM49.0121 38.7479C53.51 38.7479 56.2629 40.3189 56.2629 41.1648C56.2629 42.0107 53.51 43.5817 49.0121 43.5817C44.5142 43.5817 41.7613 42.0107 41.7613 41.1648C41.7613 40.3189 44.5142 38.7479 49.0121 38.7479ZM32.0936 26.6633C36.5915 26.6633 39.3444 28.2343 39.3444 29.0802C39.3444 29.9261 36.5915 31.4971 32.0936 31.4971C27.5957 31.4971 24.8428 29.9261 24.8428 29.0802C24.8428 28.2343 27.5957 26.6633 32.0936 26.6633ZM32.0936 55.6664C27.5957 55.6664 24.8428 54.0954 24.8428 53.2494V50.5086C27.1057 51.5823 29.5898 52.1073 32.0936 52.041C34.5974 52.1073 37.0815 51.5823 39.3444 50.5086V53.2494C39.3444 54.1014 36.5915 55.6664 32.0936 55.6664ZM49.0121 55.6664C44.5142 55.6664 41.7613 54.0954 41.7613 53.2494V50.5086C44.0242 51.5823 46.5083 52.1073 49.0121 52.041C51.5159 52.1073 54 51.5823 56.2629 50.5086V53.2494C56.2629 54.1014 53.51 55.6664 49.0121 55.6664Z" fill="#474C54"/>
</svg>

<svg width="59" height="59" fill="none" xmlns="http://www.w3.org/2000/svg"><path d="M29.677 56.875c15.35 0 27.794-12.444 27.794-27.795 0-15.35-12.444-27.795-27.794-27.795S1.882 13.73 1.882 29.08c0 15.35 12.444 27.795 27.795 27.795z" fill="#D0D7DF"/><path d="M29.677 49.624c11.346 0 20.544-9.198 20.544-20.544S41.023 8.536 29.677 8.536 9.133 17.734 9.133 29.08s9.198 20.544 20.544 20.544z" fill="#F1F2F2"/><path d="M32.094 32.706c4.676 0 8.459-1.62 8.459-3.626v6.042c0 2.006-3.783 3.626-8.46 3.626-4.676 0-8.459-1.62-8.459-3.626V29.08c0 2.006 3.783 3.626 8.46 3.626zM57.471 47.207v6.042c0 2.006-3.782 3.626-8.459 3.626s-8.46-1.62-8.46-3.626v-6.042c0 2.006 3.783 3.625 8.46 3.625 4.677 0 8.46-1.619 8.46-3.625zM49.012 44.79c4.672 0 8.46-1.623 8.46-3.625 0-2.003-3.788-3.626-8.46-3.626-4.672 0-8.46 1.623-8.46 3.626 0 2.002 3.788 3.625 8.46 3.625z" fill="#FED049"/><path d="M40.553 41.165v6.042c0 2.006-3.783 3.626-8.46 3.626-4.676 0-8.459-1.62-8.459-3.626v-6.042c0 2.006 3.783 3.625 8.46 3.625 4.676 0 8.459-1.62 8.459-3.625z" fill="#FED049"/><path d="M32.094 32.706c4.672 0 8.459-1.624 8.459-3.626s-3.787-3.625-8.46-3.625c-4.671 0-8.459 1.623-8.459 3.625 0 2.003 3.788 3.626 8.46 3.626zM40.553 35.123v6.042c0 2.006-3.783 3.625-8.46 3.625-4.676 0-8.459-1.62-8.459-3.625v-6.042c0 2.006 3.783 3.625 8.46 3.625 4.676 0 8.459-1.62 8.459-3.625z" fill="#F6B445"/><path d="M49.012 44.79c4.677 0 8.46-1.62 8.46-3.625v6.042c0 2.006-3.783 3.626-8.46 3.626-4.677 0-8.46-1.62-8.46-3.626v-6.042c0 2.006 3.783 3.625 8.46 3.625z" fill="#F6B445"/><path d="M40.553 47.207v6.042c0 2.006-3.783 3.626-8.46 3.626-4.676 0-8.459-1.62-8.459-3.626v-6.042c0 2.006 3.783 3.625 8.46 3.625 4.676 0 8.459-1.619 8.459-3.625z" fill="#F6B445"/><path d="M16.54 52.2a26.587 26.587 0 1139.723-23.12 1.208 1.208 0 102.417 0A29.003 29.003 0 1015.344 54.3a1.209 1.209 0 101.196-2.1z" fill="#474C54"/><path d="M10.341 29.08a19.336 19.336 0 0138.671 0 1.208 1.208 0 102.417 0 21.751 21.751 0 10-35.77 16.633 1.209 1.209 0 101.557-1.846 19.31 19.31 0 01-6.875-14.787z" fill="#474C54"/><path d="M49.012 36.331a15.93 15.93 0 00-7.25 1.532V29.08c0-3.173-4.864-4.834-9.668-4.834-4.805 0-9.668 1.66-9.668 4.834v24.17c0 3.173 4.863 4.833 9.668 4.833 3.348 0 6.72-.808 8.459-2.372 1.739 1.564 5.11 2.372 8.46 2.372 4.804 0 9.667-1.66 9.667-4.834V41.165c0-3.174-4.863-4.834-9.668-4.834zm7.25 10.876c0 .846-2.752 2.417-7.25 2.417s-7.25-1.57-7.25-2.417v-2.74a15.93 15.93 0 007.25 1.532 15.93 15.93 0 007.25-1.533v2.741zM39.345 35.123c0 .845-2.752 2.416-7.25 2.416s-7.251-1.57-7.251-2.416v-2.741a15.93 15.93 0 007.25 1.532 15.93 15.93 0 007.251-1.532v2.74zm-7.25 4.833a15.93 15.93 0 007.25-1.532v2.74c0 .847-2.752 2.418-7.25 2.418s-7.251-1.571-7.251-2.417v-2.741a15.93 15.93 0 007.25 1.532zm-7.251 4.51A15.93 15.93 0 0032.093 46a15.93 15.93 0 007.251-1.533v2.741c0 .846-2.752 2.417-7.25 2.417s-7.251-1.57-7.251-2.417v-2.74zm24.17-5.718c4.497 0 7.25 1.57 7.25 2.417 0 .846-2.753 2.417-7.25 2.417-4.499 0-7.252-1.571-7.252-2.417 0-.846 2.753-2.417 7.251-2.417zm-16.92-12.085c4.498 0 7.251 1.571 7.251 2.417 0 .846-2.752 2.417-7.25 2.417s-7.251-1.57-7.251-2.417c0-.846 2.753-2.417 7.25-2.417zm0 29.003c-4.497 0-7.25-1.57-7.25-2.417v-2.74a15.93 15.93 0 007.25 1.532 15.93 15.93 0 007.251-1.532v2.74c0 .852-2.752 2.417-7.25 2.417zm16.92 0c-4.499 0-7.252-1.57-7.252-2.417v-2.74a15.93 15.93 0 007.251 1.532 15.93 15.93 0 007.25-1.532v2.74c0 .852-2.752 2.417-7.25 2.417z" fill="#474C54"/></svg>
